X:1
T:Title
%%score ( 1 2 ) ( 3 4 )
L:1/8
Q:1/4=100
M:4/4
K:Bb
V:1 treble nm="Strings 1, Soprano"
V:2 treble 
V:3 bass nm="Strings 1, Bass"
V:4 bass 
V:1
 z4 z2 [DF]2 | [DF]2 [Fd]2 [Fd]2 [Fc]2 | [EG][Gc] [GB]>[EG] [DF]2 [B,D]2 | %3
w: 1.~I've~|found~ a~ ref uge~|now~ from~ eve ry~ sor row,~|
 [Fc]2 [Fc]>[Fc] [Fc]2 [FB][Fc] | [Fd]6 [DF]2 | [DF]2 [Fd]2 [Fd]2 [Fc]2 | %6
w: Joy~ ev er last ing~ and~|sweet;~ I~|see~ this~ world,~ with~|
 [EG][Gc] [GB]>[EG] [DF]2 [B,D]2 | [B,G]2 [Gc]2 [FB]2 [EA]2 | [DB]6 F2 | [Fc]2 [Fc]2 [Fc]2 [Fe]2 | %10
w: all~ its~ sin ful~ fol lies,~|Con quered~ at~ my~|feet.~ *||
 [Fd]2 [DB]2 [DB]2 [DB]2 | [Fc]2 [Fc]2 cd [Fe]2 | [Fd]6 [DF]2 | [DF]2 [Fd]2 [Fd]2 [Fc]2 | %14
w: ||||
 [EG][Gc] [GB]>[EG] [DF]2 [B,D]2 | [B,G]2 [Gc]2 [FB]2 [EA]2 | B6 z2 |] %17
w: |||
V:2
 x8 | x8 | x8 | x8 | x8 | x8 | x8 | x8 | x8 | x8 | x8 | z4 F2 z2 | x8 | x8 | x8 | x8 | %16
 D2 E2 D2 z2 |] %17
V:3
 z4 z2 [B,,B,]2 | [B,,B,]2 [B,,B,]2 [B,,B,]2 [D,B,]2 | %2
 [E,B,][E,B,] [E,B,]>[E,B,] [B,,B,]2 [B,,B,]2 | [F,A,]2 [F,A,]>[F,A,] [F,A,]2 [D,B,][F,A,] | %4
 B,6 [B,,B,]2 | [B,,B,]2 [B,,B,]2 [B,,B,]2 [D,B,]2 | [E,B,][E,B,] [E,B,]>[E,B,] [B,,B,]2 [B,,B,]2 | %7
 [E,B,]2 [C,E]2 [F,D]2 [F,,F,C]2 | [B,,B,]6 F,2 | [F,A,]2 [E,A,]2 [D,A,]2 [C,A,]2 | %10
 [B,,B,]2 [B,,F,]2 [B,,F,]2 [B,,B,]2 | [F,A,]2 [F,A,]2 A,B, [A,C]2 | B,2 B,2 B,2 [B,,B,]2 | %13
 [B,,B,]2 [B,,B,]2 [B,,B,]2 [D,B,]2 | [E,B,][E,B,] [E,B,]>[E,B,] [B,,B,]2 [B,,B,]2 | %15
 [E,B,]2 [C,E]2 [F,D]2 [F,,F,C]2 | B,2 z2 z4 |] %17
V:4
 x8 | x8 | x8 | x8 | x8 | x8 | x8 | x8 | x8 | x8 | x8 | z4 F,2 z2 | x8 | x8 | x8 | x8 | %16
 B,,2- [B,,-G,]2 [B,,F,]2 z2 |] %17

